X: 128
T: Polska efter Sven Persson
R: Polska
O: Jmtland
S: efter Sven Persson
N: Gammelvnster
Z: Hkan Lidn, 2008-09-27
M: 3/4
L: 1/8
K: G
B>A G>A B>c | (3dBd (3cAc B>g | f>e d>e f>g | (3aba (3gfe d>c | B>A G>A B>c | 
(3dBd (3cAc B>g | f>e d>e f>g | (3aba g4 :: g>f g>b a>g | f>e f>a g>f | 
e>d e>f g>f | (3efg  B4 | A>B c>d e>g | f>a (3gfe d>B | (3GAB (3cdc (3BAG | F2 G4 :|]
